src/assets/filled/LinkSquare.svg

<?xml version="1.0" encoding="UTF-8"?>
<svg width="24" height="24" viewBox="0 0 24 24" xmlns="http://www.w3.org/2000/svg">
 <path d="m16.19 2h-8.38c-3.64 0-5.81 2.17-5.81 5.81v8.37c0 3.65 2.17 5.82 5.81 5.82h8.37c3.64 0 5.81-2.17 5.81-5.81v-8.38c0.01-3.64-2.16-5.81-5.8-5.81zm-8.01 14.77h-0.07c-0.97-0.09-1.88-0.54-2.56-1.26-1.6-1.68-1.6-4.41 0-6.09l2.19-2.3c0.78-0.82 1.83-1.28 2.95-1.28s2.17 0.45 2.95 1.28c1.6 1.68 1.6 4.41 0 6.09l-1.09 1.15c-0.29 0.3-0.76 0.31-1.06 0.03-0.3-0.29-0.31-0.76-0.03-1.06l1.09-1.15c1.06-1.11 1.06-2.92 0-4.02-0.99-1.04-2.73-1.04-3.73 0l-2.19 2.3c-1.06 1.11-1.06 2.92 0 4.02 0.43 0.46 1.01 0.74 1.62 0.8 0.41 0.04 0.71 0.41 0.67 0.82-0.03 0.38-0.36 0.67-0.74 0.67zm10.27-2.18-2.19 2.3c-0.78 0.82-1.83 1.28-2.95 1.28s-2.17-0.45-2.95-1.28c-1.6-1.68-1.6-4.41 0-6.09l1.09-1.15c0.29-0.3 0.76-0.31 1.06-0.03 0.3 0.29 0.31 0.76 0.03 1.06l-1.09 1.15c-1.06 1.11-1.06 2.92 0 4.02 0.99 1.04 2.73 1.05 3.73 0l2.19-2.3c1.06-1.11 1.06-2.92 0-4.02-0.43-0.46-1.01-0.74-1.62-0.8-0.41-0.04-0.71-0.41-0.67-0.82s0.4-0.72 0.82-0.67c0.97 0.1 1.88 0.54 2.56 1.26 1.59 1.67 1.59 4.41-0.01 6.09z"/>
</svg>

<svg width="24" height="24" viewBox="0 0 24 24"  xmlns="http://www.w3.org/2000/svg">
<path d="M16.19 2H7.81C4.17 2 2 4.17 2 7.81V16.18C2 19.83 4.17 22 7.81 22H16.18C19.82 22 21.99 19.83 21.99 16.19V7.81C22 4.17 19.83 2 16.19 2ZM8.18 16.77C8.16 16.77 8.13 16.77 8.11 16.77C7.14 16.68 6.23 16.23 5.55 15.51C3.95 13.83 3.95 11.1 5.55 9.42L7.74 7.12C8.52 6.3 9.57 5.84 10.69 5.84C11.81 5.84 12.86 6.29 13.64 7.12C15.24 8.8 15.24 11.53 13.64 13.21L12.55 14.36C12.26 14.66 11.79 14.67 11.49 14.39C11.19 14.1 11.18 13.63 11.46 13.33L12.55 12.18C13.61 11.07 13.61 9.26 12.55 8.16C11.56 7.12 9.82 7.12 8.82 8.16L6.63 10.46C5.57 11.57 5.57 13.38 6.63 14.48C7.06 14.94 7.64 15.22 8.25 15.28C8.66 15.32 8.96 15.69 8.92 16.1C8.89 16.48 8.56 16.77 8.18 16.77ZM18.45 14.59L16.26 16.89C15.48 17.71 14.43 18.17 13.31 18.17C12.19 18.17 11.14 17.72 10.36 16.89C8.76 15.21 8.76 12.48 10.36 10.8L11.45 9.65C11.74 9.35 12.21 9.34 12.51 9.62C12.81 9.91 12.82 10.38 12.54 10.68L11.45 11.83C10.39 12.94 10.39 14.75 11.45 15.85C12.44 16.89 14.18 16.9 15.18 15.85L17.37 13.55C18.43 12.44 18.43 10.63 17.37 9.53C16.94 9.07 16.36 8.79 15.75 8.73C15.34 8.69 15.04 8.32 15.08 7.91C15.12 7.5 15.48 7.19 15.9 7.24C16.87 7.34 17.78 7.78 18.46 8.5C20.05 10.17 20.05 12.91 18.45 14.59Z" />
</svg>
